packages/nodes-base/nodes/CrowdDev/crowdDev.svg

<svg width="131" height="24" viewBox="0 0 131 24" fill="none" xmlns="http://www.w3.org/2000/svg">
<path d="M57.3097 1.04274C57.4165 1.06739 57.4993 1.15158 57.5223 1.25872L58.1022 3.9642C58.1357 4.12016 58.0334 4.27285 57.8764 4.30128L52.2156 5.32696C52.028 5.36095 51.8614 5.20312 51.8851 5.01395L52.4824 0.247384C52.5032 0.0813045 52.6631 -0.0303341 52.8262 0.00732829L57.3097 1.04274Z" fill="#E94F2E"/>
<path fill-rule="evenodd" clip-rule="evenodd" d="M88.9753 23.6416C90.9399 23.6416 92.6615 22.9127 93.7118 21.6226C93.8883 21.4059 94.2929 21.4955 94.3218 21.7735L94.4476 22.9845C94.4626 23.1284 94.5838 23.2378 94.7285 23.2378H97.6708C97.8268 23.2378 97.9532 23.1113 97.9532 22.9553V0.407414C97.9532 0.251441 97.8268 0.125 97.6708 0.125H94.4767C94.3208 0.125 94.1943 0.25144 94.1943 0.407413V8.87388C94.1943 9.15681 93.7865 9.28936 93.5874 9.0883C92.5408 8.03107 90.9503 7.4254 89.1928 7.4254C88.3496 7.4254 87.5673 7.53878 86.8516 7.75317V11.9657C87.577 11.236 88.5844 10.8115 89.8141 10.8115C92.4547 10.8115 94.1633 12.7376 94.1633 15.5024C94.1633 18.2673 92.4547 20.1623 89.8141 20.1623C88.5844 20.1623 87.577 19.7445 86.8516 19.0221V23.365C87.5069 23.5465 88.2167 23.6416 88.9753 23.6416ZM107.836 23.6416C111.709 23.6416 114.45 21.7562 115.219 18.6021C115.261 18.4296 115.127 18.2673 114.95 18.2673H111.992C111.867 18.2673 111.759 18.3501 111.715 18.4671C111.218 19.8009 109.883 20.5351 107.899 20.5351C105.481 20.5351 104.067 19.2729 103.712 16.7761C103.688 16.6106 103.819 16.4651 103.986 16.4646L114.948 16.4352C115.104 16.4347 115.23 16.3084 115.23 16.1527V15.285C115.23 10.5009 112.31 7.4254 107.712 7.4254C103.208 7.4254 100.07 10.7494 100.07 15.5646C100.07 20.3176 103.27 23.6416 107.836 23.6416ZM107.743 10.532C109.908 10.532 111.337 11.8061 111.462 13.7596C111.472 13.9153 111.345 14.0424 111.189 14.0424H104.099C103.925 14.0424 103.792 13.8857 103.828 13.7155C104.274 11.6288 105.615 10.532 107.743 10.532ZM124.813 23.064C124.77 23.1692 124.667 23.2378 124.553 23.2378H121.205C121.089 23.2378 120.985 23.1671 120.942 23.0595L115.078 8.27795C115.004 8.09255 115.141 7.89138 115.34 7.89138H118.768C118.885 7.89138 118.99 7.96398 119.032 8.07374L121.634 14.9433C122.045 16.0969 122.406 17.1521 122.664 17.9849C122.754 18.273 123.25 18.2731 123.341 17.9856C123.618 17.1075 124.004 16.0386 124.43 14.9433L127.155 8.06971C127.198 7.96207 127.302 7.89138 127.418 7.89138H130.717C130.918 7.89138 131.055 8.09646 130.977 8.28249L124.813 23.064Z" fill="url(#paint0_linear_470_15680)"/>
<path d="M0 15.5335C0 20.4108 3.04442 23.6416 7.70425 23.6416C11.5916 23.6416 14.5144 21.3323 15.1114 17.9329C15.1408 17.765 15.0088 17.6149 14.8383 17.6149H11.5614C11.4309 17.6149 11.3184 17.705 11.2808 17.83C10.8176 19.3719 9.51665 20.2244 7.70425 20.2244C5.28114 20.2244 3.78999 18.4226 3.78999 15.5335C3.78999 12.6444 5.4054 10.8115 7.82851 10.8115C9.55529 10.8115 10.797 11.639 11.2803 13.2392C11.3177 13.3632 11.4298 13.4521 11.5594 13.4521H14.814C14.9821 13.4521 15.1134 13.3058 15.0884 13.1395C14.5611 9.62446 11.7476 7.4254 7.67318 7.4254C3.13762 7.4254 0 10.7805 0 15.5335Z" fill="#140505"/>
<path d="M26.6792 8.04975C26.6792 7.92016 26.5911 7.80665 26.4646 7.77846C25.9342 7.66022 25.4679 7.61179 25.0017 7.61179C23.4123 7.61179 22.1776 8.22781 21.3989 9.21386C21.2178 9.44318 20.7606 9.35331 20.7323 9.06247L20.6462 8.17753C20.6322 8.03283 20.5105 7.92245 20.3652 7.92245H17.3313C17.1753 7.92245 17.0489 8.04889 17.0489 8.20486V22.9553C17.0489 23.1113 17.1753 23.2378 17.3313 23.2378H20.5565C20.7125 23.2378 20.8389 23.1113 20.8389 22.9553V15.782C20.8389 12.7997 22.5475 11.3397 25.2813 11.3397H26.3968C26.5528 11.3397 26.6792 11.2132 26.6792 11.0572V8.04975Z" fill="#140505"/>
<path d="M26.8959 15.5335C26.8959 20.3176 30.3442 23.6105 35.0972 23.6105C39.8503 23.6105 43.2985 20.3176 43.2985 15.5335C43.2985 10.7494 39.8503 7.45646 35.0972 7.45646C30.3442 7.45646 26.8959 10.7494 26.8959 15.5335ZM30.6859 15.5335C30.6859 12.7376 32.4877 10.8426 35.0972 10.8426C37.7068 10.8426 39.5085 12.7376 39.5085 15.5335C39.5085 18.3294 37.7068 20.2244 35.0972 20.2244C32.4877 20.2244 30.6859 18.3294 30.6859 15.5335Z" fill="#140505"/>
<path d="M73.9835 23.6416C75.9481 23.6416 77.6697 22.9127 78.72 21.6226C78.8964 21.4059 79.3011 21.4955 79.33 21.7735L79.4558 22.9845C79.4707 23.1284 79.592 23.2378 79.7367 23.2378H82.679C82.835 23.2378 82.9614 23.1113 82.9614 22.9553V0.407414C82.9614 0.251441 82.835 0.125 82.679 0.125H79.4849C79.329 0.125 79.2025 0.251441 79.2025 0.407414V8.87388C79.2025 9.15681 78.7947 9.28936 78.5957 9.0883C77.549 8.03107 75.9585 7.4254 74.201 7.4254C69.5722 7.4254 66.7763 10.8426 66.7763 15.6267C66.7763 20.3797 69.5411 23.6416 73.9835 23.6416ZM74.8223 20.1623C72.1817 20.1623 70.5663 18.2362 70.5663 15.5024C70.5663 12.7687 72.1817 10.8115 74.8223 10.8115C77.4629 10.8115 79.1714 12.7376 79.1714 15.5024C79.1714 18.2673 77.4629 20.1623 74.8223 20.1623Z" fill="#140505"/>
<path fill-rule="evenodd" clip-rule="evenodd" d="M44.468 11.2986C44.2998 11.3291 44.197 11.5008 44.2497 11.6635L47.9351 23.0424C47.9729 23.1588 48.0814 23.2378 48.2038 23.2378H51.4892C51.612 23.2378 51.7206 23.1585 51.7581 23.0416L53.8077 16.6519C54.202 15.3742 54.4682 14.465 54.655 13.7859C54.7379 13.4849 55.2539 13.4953 55.3278 13.7986C55.5105 14.5481 55.7667 15.4853 56.1065 16.5897L58.1564 23.0409C58.1937 23.1581 58.3025 23.2378 58.4256 23.2378H61.5593C61.6797 23.2378 61.7868 23.1615 61.8262 23.0477L66.9429 8.26618C67.0064 8.08272 66.8702 7.89138 66.676 7.89138H63.2731C63.1494 7.89138 63.0402 7.9718 63.0034 8.08985L61.0149 14.4773C60.8324 15.1057 60.5574 16.1045 60.3192 17.042C60.2432 17.3415 59.7535 17.3377 59.6796 17.0377C59.4283 16.0181 59.1181 14.8855 58.9956 14.4773L57.0071 8.08985C56.9703 7.9718 56.8611 7.89138 56.7374 7.89138H53.2992C53.1764 7.89138 53.0677 7.97066 53.0302 8.08754L50.9807 14.4773C50.6607 15.4573 50.4308 16.2056 50.233 17.0122C50.1589 17.3145 49.6915 17.3143 49.6243 17.0104C49.427 16.1185 49.2164 15.2712 48.9925 14.4773L47.9046 10.929C47.8627 10.7922 47.725 10.7084 47.5843 10.7339L44.468 11.2986Z" fill="#140505"/>
<defs>
<linearGradient id="paint0_linear_470_15680" x1="93.4995" y1="15.0132" x2="84.4995" y2="16.0133" gradientUnits="userSpaceOnUse">
<stop stop-color="#E94F2E"/>
<stop offset="1" stop-color="#CA2400"/>
</linearGradient>
</defs>
</svg>

<svg xmlns="http://www.w3.org/2000/svg" width="131" height="24" fill="none"><path fill="#E94F2E" d="M57.31 1.043a.28.28 0 0 1 .212.216l.58 2.705a.28.28 0 0 1-.226.337l-5.66 1.026a.282.282 0 0 1-.33-.313l.596-4.767a.282.282 0 0 1 .344-.24z"/><path fill="url(#a)" fill-rule="evenodd" d="M88.975 23.642c1.965 0 3.687-.73 4.737-2.02.176-.216.58-.127.61.151l.126 1.212a.28.28 0 0 0 .28.253h2.943a.28.28 0 0 0 .282-.283V.407a.28.28 0 0 0-.282-.282h-3.194a.28.28 0 0 0-.283.282v8.467c0 .283-.407.415-.607.214-1.046-1.057-2.637-1.663-4.394-1.663-.843 0-1.626.114-2.341.328v4.213c.725-.73 1.732-1.154 2.962-1.154 2.64 0 4.35 1.926 4.35 4.69s-1.71 4.66-4.35 4.66c-1.23 0-2.237-.418-2.962-1.14v4.343a8 8 0 0 0 2.123.277m18.861 0c3.873 0 6.614-1.886 7.383-5.04a.273.273 0 0 0-.269-.335h-2.958a.3.3 0 0 0-.277.2c-.497 1.334-1.832 2.068-3.816 2.068-2.418 0-3.832-1.262-4.187-3.759a.275.275 0 0 1 .274-.311l10.962-.03a.283.283 0 0 0 .282-.282v-.868c0-4.784-2.92-7.86-7.518-7.86-4.504 0-7.642 3.324-7.642 8.14 0 4.753 3.2 8.077 7.766 8.077m-.093-13.11c2.165 0 3.594 1.274 3.719 3.228a.27.27 0 0 1-.273.282h-7.09a.273.273 0 0 1-.271-.326c.446-2.087 1.787-3.184 3.915-3.184m17.07 12.532a.28.28 0 0 1-.26.174h-3.348a.28.28 0 0 1-.263-.178l-5.864-14.782a.282.282 0 0 1 .262-.387h3.428c.117 0 .222.073.264.183l2.602 6.87a81 81 0 0 1 1.03 3.04c.09.289.586.29.677.002.277-.878.663-1.947 1.089-3.043l2.725-6.873a.28.28 0 0 1 .263-.179h3.299c.201 0 .338.205.26.391z" clip-rule="evenodd"/><path fill="#140505" d="M0 15.534c0 4.877 3.044 8.108 7.704 8.108 3.888 0 6.81-2.31 7.407-5.71a.273.273 0 0 0-.273-.317h-3.277c-.13 0-.243.09-.28.215-.463 1.542-1.764 2.394-3.577 2.394-2.423 0-3.914-1.801-3.914-4.69s1.615-4.722 4.039-4.722c1.726 0 2.968.827 3.451 2.427.038.124.15.213.28.213h3.254c.168 0 .3-.146.274-.312-.527-3.516-3.34-5.715-7.415-5.715C3.138 7.425 0 10.781 0 15.533M26.68 8.05a.276.276 0 0 0-.215-.272 6.6 6.6 0 0 0-1.463-.166c-1.59 0-2.824.616-3.603 1.602-.181.23-.638.14-.667-.152l-.086-.884a.28.28 0 0 0-.28-.256H17.33a.28.28 0 0 0-.282.283v14.75c0 .156.126.283.282.283h3.226a.28.28 0 0 0 .282-.283v-7.173c0-2.982 1.709-4.442 4.442-4.442h1.116a.28.28 0 0 0 .282-.283zm.216 7.484c0 4.784 3.448 8.076 8.201 8.076s8.201-3.292 8.201-8.076-3.448-8.078-8.2-8.078c-4.754 0-8.202 3.293-8.202 8.078m3.79 0c0-2.796 1.802-4.691 4.411-4.691 2.61 0 4.411 1.895 4.411 4.69s-1.801 4.691-4.41 4.691-4.412-1.895-4.412-4.69m43.298 8.108c1.964 0 3.686-.73 4.736-2.02.176-.216.581-.127.61.151l.126 1.212a.28.28 0 0 0 .28.253h2.943a.28.28 0 0 0 .282-.283V.407a.28.28 0 0 0-.282-.282h-3.194a.28.28 0 0 0-.282.282v8.467c0 .283-.408.415-.607.214-1.047-1.057-2.638-1.663-4.395-1.663-4.629 0-7.425 3.418-7.425 8.202 0 4.753 2.765 8.015 7.208 8.015m.838-3.48c-2.64 0-4.256-1.926-4.256-4.66s1.616-4.69 4.256-4.69 4.35 1.926 4.35 4.69-1.71 4.66-4.35 4.66"/><path fill="#140505" fill-rule="evenodd" d="M44.468 11.299a.282.282 0 0 0-.218.365l3.685 11.378a.28.28 0 0 0 .269.196h3.285c.123 0 .232-.08.27-.196l2.049-6.39a99 99 0 0 0 .847-2.866c.083-.301.599-.29.673.013.182.75.439 1.686.778 2.79l2.05 6.452a.28.28 0 0 0 .27.197h3.133c.12 0 .228-.076.267-.19l5.117-14.782a.282.282 0 0 0-.267-.375h-3.403a.28.28 0 0 0-.27.199l-1.988 6.387a86 86 0 0 0-.696 2.565c-.076.3-.566.296-.64-.004a68 68 0 0 0-.683-2.56L57.007 8.09a.28.28 0 0 0-.27-.199H53.3a.28.28 0 0 0-.269.197l-2.05 6.39c-.32.98-.55 1.728-.747 2.534-.074.302-.541.302-.609-.002a46 46 0 0 0-.632-2.533l-1.087-3.548a.28.28 0 0 0-.32-.195z" clip-rule="evenodd"/><defs><linearGradient id="a" x1="93.499" x2="84.499" y1="15.013" y2="16.013" gradientUnits="userSpaceOnUse"><stop stop-color="#E94F2E"/><stop offset="1" stop-color="#CA2400"/></linearGradient></defs></svg>
